X: 7
T: No_102_Song_During_Which_Third_Warrior_Dances.krn
N: Derived from No_102_Song_During_Which_Third_Warrior_Dances.krn
%%abc-version 2.0
%%abcx-abcm2ps-target-version 5.9.1 (29 Sep 2008)
%%abc-creator hum2abc beta
%%abcx-conversion-date 2019/03/15 08:35:44
%%humdrum-veritas 2365568763
%%humdrum-veritas-data 1013626673
%%linebreak <none>
%%barnumbers 0
L: 1/8
M: 2/4
K: G clef=bass
[K:clef=bass][M:2/4]B,B,B,2 | 
(3B,B,B,B,2 | 
A,G,A,2 | 
(3G,G,G,D,2 | 
B,B,B,2 | 
(3B,B,B,B,2 | 
A,G,A,2 | 
(3G,G,G,G,2 ||  
[M:3/4]D,G, B,G, D, z ||  
[M:2/4]D,D, D,D, | 
D,D,D,2 | 
D,D,D,2 ||  
[M:3/4]D,4D,2 ||  
[M:2/4]G,G,A,2 | 
(3G,G,G,G,2 ||  
[M:3/4]D,G, B,G,D,2 ||  
[M:2/4]D,D, D,D, | 
D,D,D,2 | 
D,4 |]  



